svgs/sharp-light/cabin.svg

<svg xmlns="http://www.w3.org/2000/svg" viewBox="0 0 512 512"><!--! Font Awesome Pro 6.6.0 by @fontawesome - https://fontawesome.com License - https://fontawesome.com/license (Commercial License) Copyright 2024 Fonticons, Inc. --><path d="M32 224l32 0 96 0 32 0 128 0 32 0 96 0 32 0 0-23.6L256 39.4 32 200.4 32 224zm0 32L0 256l0-32 0-40L256 0l96 69 0-21 0-16 16 0 96 0 16 0 0 16 0 112-1.4 0L512 184l0 40 0 32-32 0 0 32 0 32 0 32 0 32 0 32 0 32 0 32 0 32-32 0-96 0-32 0 0-32 0-32 0-32 0-32 0-32 0-32 0-32 0-32-128 0 0 32 0 32 0 32 0 32 0 32 0 32 0 32 0 32-32 0-96 0-32 0 0-32 0-32 0-32 0-32 0-32 0-32 0-32 0-32zm128 0l-96 0 0 32 96 0 0-32zm192 0l0 32 96 0 0-32-96 0zm96-118l0-74-64 0 0 28 64 46zM256 128a16 16 0 1 0 0 32 16 16 0 1 0 0-32zm48 16a48 48 0 1 1 -96 0 48 48 0 1 1 96 0zM160 320l-96 0 0 32 96 0 0-32zm0 64l-96 0 0 32 96 0 0-32zM64 480l96 0 0-32-96 0 0 32zM448 320l-96 0 0 32 96 0 0-32zm0 64l-96 0 0 32 96 0 0-32zm-96 96l96 0 0-32-96 0 0 32z"/></svg>

<svg xmlns="http://www.w3.org/2000/svg" viewBox="0 0 512 512"><!--! Font Awesome Pro 6.4.0 by @fontawesome - https://fontawesome.com License - https://fontawesome.com/license (Commercial License) Copyright 2023 Fonticons, Inc. --><path d="M32 224H64h96 32H320h32 96 32V200.4L256 39.4 32 200.4V224zm0 32H0V224 184L256 0l96 69V48 32h16 96 16V48 160h-1.4L512 184v40 32H480v32 32 32 32 32 32 32 32H448 352 320V480 448 416 384 352 320 288 256H192v32 32 32 32 32 32 32 32H160 64 32V480 448 416 384 352 320 288 256zm128 0H64v32h96V256zm192 0v32h96V256H352zm96-118V64H384V92l64 46zM256 128a16 16 0 1 0 0 32 16 16 0 1 0 0-32zm48 16a48 48 0 1 1 -96 0 48 48 0 1 1 96 0zM160 320H64v32h96V320zm0 64H64v32h96V384zM64 480h96V448H64v32zM448 320H352v32h96V320zm0 64H352v32h96V384zm-96 96h96V448H352v32z"/></svg>
